X:2439
T:Polska från Södermanland
T:Svenska Folkdansar H1 nr 22
O:Södermanland
B:Traditioner av Svenska Folkdansar Häfte 1, nr 22
R:Polska
Z:Nils L
M:3/4
L:1/8
K:G
(d>c) B2 G2 | (c>B) A2 D2 | G>F GA Bc | (d>e) dc Bc |
(d>c) B2 G2 | (c>B) A2 D2 | (G>F) GA Bc | (A>F) G4 ::
(.D.D .D.D .D.D) | (.E.E .E.E .E.F) | GA BA GF | G2 DC B,A, |
(.G,.D .D.D .D.D) | (.E.E .E.E .E.F) | GA BA GF | G2 G,2 z2 :|
(:musicend:)
(:music:)
